X:1
T:Title
%%score { ( 1 4 5 ) | ( 2 3 ) }
L:1/8
M:4/4
K:F
V:1 treble nm="Grand Piano"
V:4 treble 
V:5 treble 
V:2 bass 
V:3 bass 
V:1
 z4 z2[Q:1/4=108] F>G | A2 A2 A2 [CF]>[CF] | [DG]2 [DF]2 [DF]2 [DF]>[Fd] | c2 A2 F2 A2 | %4
 [EG]6 F>G | A2 A2 A2 [FA]>[FA] | [FB]2 [Fc]2 [Fd]2 [Fd]>[Fd] | [Fc]2 [CFA]F [CEA]2 [B,EG]2 | %8
 [A,F]6 z2 | [Bc]6 z2 | [Ac]6 z2 | e6 z2 | [Ec]6 z2 | [Af]2 [Ac]2 A2 cc | [Fd]2 [DFB]2 [DFG]2 z2 | %15
 [Ac]6 z2 |[M:3/4] F6 |] %17
V:2
 z4 z2 [F,A,]>[F,B,F] | [F,CF]2 [F,CF]2 [F,CF]2 A,,>A,, | %2
 [B,,B,]2 [B,,B,]2 [B,,B,]2 [B,,B,]>[B,,B,] | [F,A,F]2 [F,CF]2 [A,C]2 [F,CF]2 | %4
 [C,C]6 [F,A,]>[F,B,F] | [F,CF]2 [F,CF]2 [F,CF]2 [_E,C]>[E,C] | %6
 [D,B,]2 [C,A,]2 [B,,B,]2 [=B,,_A,]>[B,,A,] | [C,A,]2 z A, C,2 C,2 | F,6 z2 | %9
 C,2 C,2 z z/[K:treble] B/ z z/ B/ | F,2 F,2 F,2 F,2 | G2- [G,G-]2 G>F z z/ F/ | %12
 [C,G,]2 C,>C, C,2[K:treble] [CB][CB] | [F,C]2 [F,C]2[K:treble] [F,CF]2 [A,CF][A,CF] | %14
 [B,,B,]2 B,,2 B,,2 z2 | C,2 C,2 z z/ A,/ z z/ B,/ |[M:3/4] z2 B,>B, A,2 |] %17
V:3
 x8 | x8 | x8 | x8 | x8 | x8 | x8 | z2 C,2 z4 | x8 | z4 C,2[K:treble] C,2 | x8 | %11
 [G,C]2 z2 G,2 G,2 | x6[K:treble] x2 | x4[K:treble] x4 | x8 | z4 C,2 C,2 |[M:3/4] F,6 |] %17
V:4
 x8 | x8 | x8 | x8 | x8 | x8 | x8 | x8 | x8 | E2 E2 z z/ c/ [Bd]>c | F2 F2 F2 F2 | %11
 z2 C2 z z/ d/ [Ec]>=B | z2 G,>G, G,2 cc | x8 | x8 | C2 C2 C>F [CFA]>[EG] |[M:3/4] A,2 D>D C2 |] %17
V:5
 x8 | x8 | x8 | x8 | x8 | x8 | x8 | x8 | x8 | z4 E2 E2 | x8 | z4 C2 z2 | x8 | x8 | x8 | x8 | %16
[M:3/4] x6 |] %17

